src/assets/skills/rails.svg

<svg fill="none" height="100" viewBox="0 0 100 100" width="100" xmlns="http://www.w3.org/2000/svg"><rect fill="#933" height="100" rx="50" width="100"/><g fill="#fff"><path d="m27.0588 80c2.9412-56.4706 36.7647-65 53.5295-48.2353l-.8824 2.0588c-26.7647-14.4117-35 26.1765-23.2353 46.1765z"/><path d="m72.9412 32.0588v1.7647l2.9412.2941v-1.4705zm.2941-8.5294v1.7647l3.2353 2.0588v-1.4705zm-9.7059 10 2.6471-.8823.8823 2.647-2.3529.8824zm-5.2941-13.5294h4.1176l.8824 2.9412h-3.8235zm.5882 17.3529 2.0589 3.2353-1.4706 2.0589-2.353-3.2353zm-10-15.5882 2.353 3.5294-3.2353 2.0588-2.6471-3.5294zm5.2941 24.7059-.8823 3.2353 3.2353 2.3529.5882-2.9412zm-17.9411-15.5882 3.8235 3.2352-2.6471 3.8236-3.8235-2.9412zm16.1764 26.1764v3.5294l4.4118 1.4706-.2941-3.2353zm-25.5882-10.8823 4.7059 2.0588-1.4706 4.4118-5-1.7647zm27.3529 24.1176 1.1765 3.8235 5.2941.5883-1.1764-3.5294zm-32.9411-5.5882 5.2941.8823-.5882 5.5883-5.8824-.5883z"/></g></svg>

<svg width="100" height="100" viewBox="0 0 100 100" fill="none" xmlns="http://www.w3.org/2000/svg">
<rect width="100" height="100" rx="50" fill="#993333"/>
<path d="M27.0588 80C30 23.5294 63.8235 15 80.5883 31.7647L79.7059 33.8235C52.9412 19.4118 44.7059 60 56.4706 80H27.0588Z" fill="white"/>
<path d="M72.9412 32.0588V33.8235L75.8824 34.1176V32.6471L72.9412 32.0588ZM73.2353 23.5294V25.2941L76.4706 27.3529V25.8824L73.2353 23.5294ZM63.5294 33.5294L66.1765 32.6471L67.0588 35.2941L64.7059 36.1765L63.5294 33.5294ZM58.2353 20H62.3529L63.2353 22.9412H59.4118L58.2353 20ZM58.8235 37.3529L60.8824 40.5882L59.4118 42.6471L57.0588 39.4118L58.8235 37.3529ZM48.8235 21.7647L51.1765 25.2941L47.9412 27.3529L45.2941 23.8235L48.8235 21.7647ZM54.1176 46.4706L53.2353 49.7059L56.4706 52.0588L57.0588 49.1176L54.1176 46.4706ZM36.1765 30.8824L40 34.1176L37.3529 37.9412L33.5294 35L36.1765 30.8824ZM52.3529 57.0588V60.5882L56.7647 62.0588L56.4706 58.8235L52.3529 57.0588ZM26.7647 46.1765L31.4706 48.2353L30 52.6471L25 50.8824L26.7647 46.1765ZM54.1176 70.2941L55.2941 74.1176L60.5882 74.7059L59.4118 71.1765L54.1176 70.2941ZM21.1765 64.7059L26.4706 65.5882L25.8824 71.1765L20 70.5882L21.1765 64.7059Z" fill="white"/>
</svg>
